X:026
T:Coach Road to Sligo, The 
T:Blackthorn Stick, Humors of Bantry
B:CRE3.005 (BÃÂÃÂÃÂÃÂ³thar an ChÃÂÃÂÃÂÃÂ³iste go Sligeach) 
F:file ID: cre.3/026coach_r
N:aka 
R:jig
Q:160
M:6/8
K:G
d|g3 ege|dBG AGE|DGG FGA|B3 ABd|
"5"gbg ege|dBG AGE|DEG FGA|1 BGG GB:|2 BGG G2||
d|"9"Bdd edd|gdd edd|Bcd edd|gdB AGA|
"13"Bdd edd|gdd edB|GAB AGA|BGG G2d|
"17"Bdd edd|gdd edd|Bcd gfg|edB ABd|
"21"gbg ege|dBG AGE|D2G F2A|BGG G3 |]


%%%

